X: 1
T: The Airds Ranters
C: Fred Morrison
M: C
L: 1/8
Q: 1/4=152
R: strathspey
K: Am
A/ | e<a a>e g<e e>d | e<a a>e g<e d2 | e<a a>e g<e e>d | c<A A>G c<A A3/2 :|
B/ | c>c B>d c<A A>G | c<A A>G c<A A>B | c>c B>d c<A A>G | c<A A<G A2 A3/2 :|
